**kern	**text	**kern	**text
*staff2	*staff2	*staff1	*staff1
*I"Altus	*	*I"Cantus	*
*I'A	*	*I'C	*
*clefC3	*	*clefC1	*
*mclefGv2	*	*mclefG2	*
*k[]	*	*k[]	*
*d:dor	*	*d:dor	*
*M2/1	*	*M2/1	*
*met(C|)	*	*met(C|)	*
=1	=1	=1	=1
*xywh-#44:252,59,2343,451	*	*xywh-#4:268,73,2384,456	*
{0d	Be-	0r@	.
=2	=2	=2	=2
1c#X	-a-	{0a	Be-
1d	-tus	.	.
=3	=3	=3	=3
2G	vir	1b-X	-a-
1d	qui	.	.
.	.	1a	-tus
2d	in	.	.
=4	=4	=4	=4
2.f	sa-	2d	vir
.	.	1a	qui
4e	.	.	.
4d	.	.	.
4c	.	.	.
2d	.	2a	in
=5	=5	=5	=5
2A	-pi-	2.cc	sa-
2.f	-en-	.	.
.	.	4b	.
.	.	4a	.
4e	.	4g	.
2d	.	2a	.
=6	=6	=6	=6
2c	-ti-	2e	-pi-
2A	-a	2.cc	-en-
2.c	mo-	.	.
.	.	4b	.
.	.	2a	.
4d	.	.	.
=7	=7	=7	=7
4e	.	2g	-ti-
4c	.	.	.
2g	.	2e	-a
*xywh-#44:246,499,2351,370	*	*	*
4c	-ra-	2.g	mo-
4d	.	.	.
4e	.	.	.
4c	.	4a	.
=8	=8	=8	=8
*	*	*xywh-#4:268,529,2375,342	*
4d	.	4b	.
4e	.	4g	.
4A}	.	1cc	.
4B@	.	.	.
4c@	.	.	.
4A@	.	.	.
4d@	.	2.b	-ra-
4e@	.	.	.
=9	=9	=9	=9
4d@	.	.	.
4c@	.	4a	.
4c@	.	[4a}	.
*-	*-	*-	*-
!!!RDF**kern: l = terminal long
!!!RDF**kern: i = editorial accidental
!!!system-decoration: [(s1,s2)]
!!!RDF**kern: @ = marked note, color=#ccc
!!!RDF**kern: { = phrase, brack